X: 10196
T: Dionne
R: reel
M: 4/4
K: Dmajor
|Adfd gdfd|Adfd ed (3Bcd|Adfd gdfd|efec d2(3dcB|
Adfd gdfd|Adfd ed (3Bcd|Adfd gdfd|efec d2fg||
afbf afde|fded Bcde|afbf afde|fdec d2fg|
afbf afde|fded Bcde|afbf afde|fdec d2:|
A|B2AG BGAG|BGAG EFGA|B2AG BGAG|EGFA G3:|
|:F2Ad fdAF|G2Bd g3B|ABce gece|defg afdA|
F2Ad fdAF|G2Bd g3B|ABce gece|1 dfec dBAG:|2 dfec defg||
|:a2fd afda|g2e=c gefg|a2fd afda|1 gece defg:|2 gece d3B:|

